src/icons_unused/hds/ui/calendar-clock.svg

<svg xmlns="http://www.w3.org/2000/svg" width="24" height="24" viewBox="0 0 24 24">
  <g fill="none" fill-rule="evenodd">
    <rect width="24" height="24"/>
    <path fill="currentColor" d="M17,12 C20.3137085,12 23,14.6862915 23,18 C23,21.3137085 20.3137085,24 17,24 C13.6862915,24 11,21.3137085 11,18 C11,14.6862915 13.6862915,12 17,12 Z M17,14 C14.790861,14 13,15.790861 13,18 C13,20.209139 14.790861,22 17,22 C19.209139,22 21,20.209139 21,18 C21,15.790861 19.209139,14 17,14 Z M17,2 C17.5522847,2 18,2.44771525 18,3 L18,4 L22,4 L22.0015996,13.1026501 C21.4273236,12.5162267 20.7507437,12.0303782 20.0007361,11.6739809 L20,11 L4,11 L4,19 L10.0710334,19.0010101 C10.1721318,19.7070649 10.3785944,20.3791204 10.6739809,21.0007361 L2,21 L2,4 L6,4 L6,3 C6,2.44771525 6.44771525,2 7,2 C7.55228475,2 8,2.44771525 8,3 L8,4 L16,4 L16,3 C16,2.44771525 16.4477153,2 17,2 Z M17.5,15 L17.5,17.9395 L19.0303301,19.4696699 L17.9696699,20.5303301 L16,18.5606602 L16,15 L17.5,15 Z M20,6 L4,6 L4,9 L20,9 L20,6 Z"/>
  </g>
</svg>

<svg viewBox="0 0 24 24" role="img" xmlns="http://www.w3.org/2000/svg"><g fill="none" fill-rule="evenodd"><path d="M0 0h24v24H0z"/><path d="M17 12a6 6 0 110 12 6 6 0 010-12zm0 2a4 4 0 100 8 4 4 0 000-8zm0-12a1 1 0 011 1v1h4l.002 9.103A7.018 7.018 0 0020 11.674L20 11H4v8l6.071.001a6.95 6.95 0 00.603 2L2 21V4h4V3a1 1 0 112 0v1h8V3a1 1 0 011-1zm.5 13v2.94l1.53 1.53-1.06 1.06L16 18.56V15h1.5zM20 6H4v3h16V6z" fill="currentColor"/></g></svg>
